UI/Tools/SVG/add-road_solid_24px.svg

<svg width="24" height="24" viewBox="0 0 24 24" fill="none" xmlns="http://www.w3.org/2000/svg">
<path d="M11 18C11 16.4087 11.6321 14.8826 12.7574 13.7574C13.8826 12.6321 15.4087 12 17 12C17.6281 11.9979 18.2526 12.0958 18.85 12.29L22 9.14L19.14 6.29L16.29 9.14L14.86 7.71L17.71 4.86L14.86 2L2 14.86L4.86 17.71L7.71 14.86L9.14 16.29L6.29 19.14L9.14 22L11.29 19.85C11.0958 19.2526 10.9979 18.6281 11 18ZM12.71 9.86L14.14 11.29L11.29 14.14L9.86 12.71L12.71 9.86ZM21 19H18V22H16V19H13V17H16V14H18V17H21V19Z" fill="#0F1621"/>
</svg>

<svg xmlns="http://www.w3.org/2000/svg" width="24" height="24" viewBox="0 0 24 24"><path d="M11,18a6,6,0,0,1,6-6,5.92,5.92,0,0,1,1.85.29L22,9.14,19.14,6.29,16.29,9.14,14.86,7.71l2.85-2.85L14.86,2,2,14.86l2.86,2.85,2.85-2.85,1.43,1.43L6.29,19.14,9.14,22l2.15-2.15A5.92,5.92,0,0,1,11,18Zm1.71-8.14,1.43,1.43-2.85,2.85L9.86,12.71ZM21,19H18v3H16V19H13V17h3V14h2v3h3Z"/><rect width="24" height="24" style="fill:none"/></svg>
